X:1
T:Reverend Mr. Patrick MacDonald of Kilmore
M:C
L:1/8
B:Alburger – Scottish Fiddlers and Their Music (1983, p. 156)
K:Ador
A/A/A A>B A>G E2|c<cc>e d>cB<G|A/A/A A>e A>GE<C|
|1 D/D/D E>G A<A, A,2:|2 D/D/D E>G A<A, A,B,||C2 CE DCB,E|
C>B,A<C B,<EE>B|c/c/c c>e d>cB<e|c>B{B}A>G E<AA>B|
c/c/c g2 B>c d2|c>BA>c B<e e2|E2 A>^G A>Bc>e|d>c c/B/A/G/ E<A A2||

